X: 7019
T: Chief O'Neill's Favourite
R: hornpipe
M: 4/4
K: Dmajor
|:d>e|f>ef>g a>fg>e|(3fgf e>c d>cA>G|F>D (3DDD D>FA>B|=c>Ad>^c A2 d>e|
f>ef>g a>fg>e|(3fgf e>c d>cA>G|F>DE>F G>BA>G|F2 (3DDD D2:|
|:D>E|=F>FF>G F>GA>B|=c>Bc>d c>BA>G|A>dd>c d>ef>d|=c>Ad>^c A2 d>e|
f>ef>g a>fg>e|(3fgf e>c d>cA>G|F>ED>F G>BA>G|F2 (3DDD D2:|

